front/src/Assets/image/landing/google.svg

<svg width="24" height="24" viewBox="0 0 24 24" fill="none" xmlns="http://www.w3.org/2000/svg">
<path d="M21.8055 10.0415H21V10H12V14H17.6515C16.827 16.3285 14.6115 18 12 18C8.6865 18 6 15.3135 6 12C6 8.6865 8.6865 6 12 6C13.5295 6 14.921 6.577 15.9805 7.5195L18.809 4.691C17.023 3.0265 14.634 2 12 2C6.4775 2 2 6.4775 2 12C2 17.5225 6.4775 22 12 22C17.5225 22 22 17.5225 22 12C22 11.3295 21.931 10.675 21.8055 10.0415Z" fill="#FFC107"/>
<path d="M3.15308 7.3455L6.43858 9.755C7.32758 7.554 9.48058 6 12.0001 6C13.5296 6 14.9211 6.577 15.9806 7.5195L18.8091 4.691C17.0231 3.0265 14.6341 2 12.0001 2C8.15908 2 4.82808 4.1685 3.15308 7.3455Z" fill="#FF3D00"/>
<path d="M11.9999 22C14.5829 22 16.9299 21.0115 18.7044 19.404L15.6094 16.785C14.5717 17.5742 13.3036 18.0011 11.9999 18C9.39891 18 7.19041 16.3415 6.35841 14.027L3.09741 16.5395C4.75241 19.778 8.11341 22 11.9999 22Z" fill="#4CAF50"/>
<path d="M21.8055 10.0415H21V10H12V14H17.6515C17.2571 15.1082 16.5467 16.0766 15.608 16.7855L15.6095 16.7845L18.7045 19.4035C18.4855 19.6025 22 17 22 12C22 11.3295 21.931 10.675 21.8055 10.0415Z" fill="#1976D2"/>
</svg>

<svg xmlns="http://www.w3.org/2000/svg" fill="none" viewBox="0 0 24 24">
  <path fill="#FFC107" d="M21.805 10.041H21V10h-9v4h5.651A5.998 5.998 0 016 12a6 6 0 016-6c1.53 0 2.921.577 3.98 1.52l2.83-2.83A9.954 9.954 0 0012 2C6.478 2 2 6.478 2 12c0 5.523 4.478 10 10 10 5.523 0 10-4.477 10-10 0-.67-.069-1.325-.195-1.959z"/>
  <path fill="#FF3D00" d="M3.153 7.346L6.44 9.755A5.997 5.997 0 0112 6c1.53 0 2.921.577 3.98 1.52l2.83-2.829A9.954 9.954 0 0012 2a9.994 9.994 0 00-8.847 5.346z"/>
  <path fill="#4CAF50" d="M12 22c2.583 0 4.93-.988 6.704-2.596l-3.095-2.619A5.955 5.955 0 0112 18a5.997 5.997 0 01-5.64-3.973L3.096 16.54C4.752 19.777 8.113 22 12 22z"/>
  <path fill="#1976D2" d="M21.805 10.041H21V10h-9v4h5.651a6.02 6.02 0 01-2.043 2.785h.002l3.095 2.619C18.485 19.602 22 17 22 12c0-.67-.069-1.325-.195-1.959z"/>
</svg>
